X: 131748
T: Kelly's Merry Thatcher
T: Tuiod\'oir Aerach
S: B.Breathnach:"Ceol Rince na hEireann" IV/134
Z: B.Black
L: 1/8
M: 4/4
R: reel
K: Edor
EBBA FADA|FADA ADFA|EBBA FADA|(3Bcd AF BE E2|
EBBA FADA|ADFA d2 de|fgfe dfec|dBAF BE E2 :|
eBBf efge|fdde fgaf|eBBg fgaf|defa ge e2|
eBBf gfge|ADFA d2 de|fgfe dfec|dBAF BE E2 :|
